**kern
*ICvox
*E:
*M4/4
*clefC3
r;
=1
1r
=2
*>Letter>A
*>Label>Intro
1r
=3
1r
=4
1r
=5
2r
4r
8r
8B
=6
*
8c#
8G#
8c#
16B
16G#
16c#
16B
16G#
[16B
8B]
16B
16G#
=7
8B
8G#
8B
16G#
16c#
16r
16G#
16B
16B
8F#
8B
=8
8E
8r
4r
2r
.
.
.
.
=9
2r
.
4r
16r
16e
16e
16e
=10
16f#
16B
16e
16c#
8e
8c#
16e
16c#
8e
16e
16c#
16e
16c#
=11
16f#
16e
8c#
8e
16e
16c#
16e
16c#
16B
[16d#
8d#]
8r
=12
*
2r
.
.
.
16r
16c#
16c#
16e
8f#
8e
=13
4e
4r
4r
8r
8e
=14
16e
16c#
8F#
8c#
16e
16e
16f#
16e
8c#
8c#
16e
16e
=15
8f#
16c#
[16c#
8c#]
16e
16e
16f#
8e
[16c#
4c#]
=16
2r
.
.
.
8r
16c#
16e
8f#
8e
=17
4f#
4f#
4f#
4f#
=18
*
4r
16r
16B
8d#
8f#
4B
[8c#
=19
8c#]
4e
8g#
2r
=20
4r
8r
16B
16d#
8f#
4B
[8A
=21
8A]
4F#
8E
2r
=22
8r
8d
16d
16d
8d
8r
8d
16d
16d
8d
=23
*
8dq
8e
8e
8dq
8e
8e
8dq
8e
8e
8dq
8e
8e
=24
4r
8d
8d
8d
8r
4d
=25
8dq
8e
8e
8dq
8e
8e
8dq
8e
8e
8dq
8e
8e
=26
*
1r
.
.
.
.
.
.
.
.
.
=27
8dq
8e
8e
8dq
8e
8e
8dq
8e
8e
8dq
8e
8e
=28
4r
8d
8B
8d
8B
4d
=29
8dq
8e
8e
8dq
8e
8e
8dq
8e
8e
8dq
8e
8e
=30
1r
.
.
.
.
.
.
.
.
.
=31
8dq
8e
8e
8dq
8e
8e
8dq
8e
8e
8dq
8e
8e
=32
4r
8d
8B
8d
8r
8eq
4f#
=33
8dq
8e
8e
8dq
8e
8e
8dq
8e
8e
8dq
8e
8e
=34
4r
8d
8B
4d
8eq
4f#
=35
4.e
8r
2r
=36
*
8g#q
4g#
8r
8e
8f#
4f#
[8e
=37
8e]
8r
4r
2r
=38
8g#q
4g#
8r
8e
8f#
4f#
[8e
=39
8e]
8r
4r
2r
=40
4r
8r
16d
16~c#
8d
8d
8e
[8e
=41
4e]
4r
4r
8f#
[8e [8b
=42
1e] 1b]
.
=43
4r
8r
16B
16B
8B
4e
16f#
[16g#
=44
8g#]
4r
16g#
16g#
8f#
4g#
.
[8f#
=45
8f#]
4e
16B
16B
8B
4e
16f#
[16g#
=46
8g#]
4r
16g#
16g#
8f#
4g#
.
[8e
=47
4e]
8r
16B
16B
8B
4e
16f#
[16g#
=48
8g#]
4r
16g#
16g#
8f#
4g#
[8f#
=49
8f#]
4e
16B
16B
8B
4e
16f#
[16g#
=50
8g#]
8r
8g#
8g#
8f#
4g#
[8e
=51
4.e]
8r
4r
16r
16f#
16f#
16f#
=52
*
16f#
16e
16c#
16B
8d#
8B
16d#
16B
8d#
16d#
16B
16c#
16B
=53
16e
16c#
8B
8f#
16e
16c#
16e
16c#
8B
4d#
=54
2r
.
.
.
16r
16c#
16c#
16e
8f#
8e
=55
4e
4r
4r
8r
8e
=56
16e
16c#
8F#
8c#
16e
16e
16f#
16e
8c#
8c#
16e
16e
=57
8f#
16c#
[16c#
8c#]
16e
16e
16f#
8e
[16c#
4c#]
=58
2r
.
.
.
8r
16c#
16e
8f#
8e
=59
4f#
4f#
4f#
4f#
=60
*
4r
16r
16B
8d#
8f#
4B
[8c#
=61
8c#]
8r
4r
2r
=62
4r
8r
16B
16d#
8f#
4B
[8A
=63
8A]
8d
16d
16d
8d
8r
8d
16d
16d
8d
=64
*
8dq
8e
8e
8dq
8e
8e
8dq
8e
8e
8dq
8e
8e
=65
4r
8d
8d
8d
8r
4d
=66
8dq
8e
8e
8dq
8e
8e
8dq
8e
8e
8dq
8e
8e
=67
*
1r
.
.
.
.
.
.
.
.
.
=68
8dq
8e
8e
8dq
8e
8e
8dq
8e
8e
8dq
8e
8e
=69
4r
8d
8B
8d
8B
4d
=70
8dq
8e
8e
8dq
8e
8e
8dq
8e
8e
8dq
8e
8e
=71
1r
.
.
.
.
.
.
.
.
.
=72
8dq
8e
8e
8dq
8e
8e
8dq
8e
8e
8dq
8e
8e
=73
4r
8d
8B
8d
8r
8eq
4f#
=74
8dq
8e
8e
8dq
8e
8e
8dq
8e
8e
8dq
8e
8e
=75
4r
8d
8B
4d
8eq
4f#
=76
4.e
8r
2r
=77
*
8g#q
4g#
8r
8e
8f#
4f#
[8e
=78
8e]
8r
4r
2r
=79
8g#q
4g#
8r
8e
8f#
4f#
[8e
=80
8e]
8r
4r
2r
=81
4r
8r
16d
16~c#
8d
8d
8e
[8e
=82
4e]
4r
4r
8f#
[8e [8b
=83
1e] 1b]
.
=84
*
4r
8r
16B
16B
8B
4e
16f#
[16g#
=85
8g#]
4r
16g#
16g#
8f#
4g#
.
[8f#
=86
8f#]
4e
16B
16B
8B
4e
16f#
[16g#
=87
8g#]
8r
8g#
8g#
8f#
4g#
[8e
=88
*
4.e]
8r
2r
=89
*M2/4
*
2r
=90
*c#:
*M4/4
2r
4r
8r
16e
16B
=91
8f#
16B
[16d#
16d#]
16e
16e
16c#
8f#
16B
[16d#
4d#]
=92
2r
4r
8r
16c#
16e
=93
16f#
8B
[16B
8B]
16e
16e
16f#
8B
[16B
4B]
=94
*E:
*
8dq 8ddq
8e 8ee
8e 8ee
8dq
8e
8e
8dq
8e
8e
8dq
8e
8e
=95
*
4r
8d 8dd
8B 8b
8d 8dd
8r
8eq 8eeq
4f# 4ff#
=96
8dq 8ddq
8e 8ee
8e 8ee
8dq
8e
8e
8dq
8e
8e
8dq
8e
8e
=97
4r
8d 8dd
8B 8b
4d 4dd
8eq 8eeq
4f# 4ff#
=98
4e 4ee
4r
2r
r;
*-
!!!BillboardChartDate: 1989/05/27
!!!BillboardPeak: 1
!!!BillboardWeeksOnChart: 21
!!!COC: Milli Vanilli
!!!EMD: 
!!!ENC: Nathaniel Condit-Schultz
!!!EST: Awating manual error checking and editing.
!!!OTL: Baby Don't Forget My Number
!!!RDF**chordsym: original McGill chord annotation + (implied pitch class set, with bass pitch in first position)
!!!RDF**harmony: **recip + pitch class of root + harmonic quality
!!!RDF**leadinstrument: original McGill primary instrumentation annotation
!!!RDF**phrase: newline = linebreak in original McGill transcription
!!!RDF**timestamp: McGill audio timestamp in seconds
!!!RDT: 2017/01/12/
!!!SampleActualRank: 22
!!!SampleID#: 1276
!!!SampleTargetRank: 21
